Origami/64x64/apps/koala.svg

<svg width="64" height="64" version="1" xmlns="http://www.w3.org/2000/svg">
 <rect x="22" y="34" width="20" height="24" rx="2.858" ry="2.666" style="fill:#6f6f6f"/>
 <path d="m27.95 15.996a12 12 0 0 1 -11.95 11.004 12 12 0 0 1 -11.9492 -10.996 12 12 0 0 0 -0.0508 0.996 12 12 0 0 0 12 12 12 12 0 0 0 12 -12 12 12 0 0 0 -0.05 -1.004zm32 0a12 12 0 0 1 -11.95 11.004 12 12 0 0 1 -11.95 -10.996 12 12 0 0 0 -0.05 0.996 12 12 0 0 0 12 12 12 12 0 0 0 12 -12 12 12 0 0 0 -0.05 -1.004zm-45.848 29.16c-0.148772 0.87186-0.133198 1.77956 0.09766 2.6836 0.95062 3.7226 4.5698 5.9154 8.1172 4.918 1.92384-0.5409 1.90792-1.42402 1.375-2.6796-0.266 0.26622-0.70638 0.4917-1.375 0.67968-3.5474 0.99738-7.1666-1.1953-8.1172-4.918-0.05827-0.2282-0.06532-0.45548-0.09766-0.6836zm35.828 0c-0.03234 0.2281-0.03938 0.4554-0.09766 0.6836-0.95062 3.7226-4.5736 5.9154-8.121 4.918-0.68094-0.19146-1.12068-0.42264-1.38672-0.69532-0.5314 1.26308-0.54398 2.1524 1.38672 2.6954 3.5474 0.99738 7.1704-1.1953 8.121-4.918 0.23086-0.90404 0.24642-1.81174 0.09766-2.6836zm-31.562 13.844c-0.2232 0.628-0.3672 1.296-0.3672 2h12c0-0.70468-0.14402-1.37186-0.36718-2h-11.2656zm16 0c-0.224 0.628-0.368 1.296-0.368 2h12c0-0.70468-0.14402-1.37186-0.36718-2h-11.2656z" style="opacity:.2"/>
 <circle cx="16" cy="16" r="12" style="fill:#6f6f6f"/>
 <circle cx="48" cy="16" r="12" style="fill:#6f6f6f"/>
 <path d="m22 45v-7s-1.76872 0.0793-2.6256 0.32022c-3.5474 0.99738-6.1262 4.7972-5.1756 8.52 0.95062 3.7226 4.5718 5.9166 8.1192 4.9192 3.548-0.998 0.632-3.038-0.318-6.76z" style="fill:#a0a3a4"/>
 <path d="m42 45v-7s1.79862 0.0793 2.6556 0.32022c3.5474 0.99738 6.1262 4.7972 5.1756 8.52-0.95062 3.7226-4.5718 5.9166-8.1192 4.9192-3.548-0.998-0.662-3.038 0.288-6.76z" style="fill:#a0a3a4"/>
 <path d="m46 60h-12c0-3.3138 2.6862-6 6-6s6 2.6862 6 6z" style="fill:#a0a3a4"/>
 <path d="m30 60h-12c0-3.3138 2.6862-6 6-6s6 2.6862 6 6z" style="fill:#a0a3a4"/>
 <path d="m16 4a12 12 0 0 0 -12 12 12 12 0 0 0 0.0195312 0.40625 12 12 0 0 1 11.980469 -11.40625 12 12 0 0 1 11.974609 11.498047 12 12 0 0 0 0.025391 -0.498047 12 12 0 0 0 -12 -12zm32 0a12 12 0 0 0 -12 12 12 12 0 0 0 0.019531 0.40625 12 12 0 0 1 11.980469 -11.40625 12 12 0 0 1 11.974609 11.498047 12 12 0 0 0 0.025391 -0.498047 12 12 0 0 0 -12 -12zm-26 34s-1.768 0.080312-2.625 0.320312c-3.193304 0.897578-5.559697 4.068068-5.3125 7.40625 0.235916-2.952534 2.440738-5.599052 5.3125-6.40625 0.857-0.24 2.625-0.320312 2.625-0.320312v-1zm20 0v1s1.80025 0.080312 2.65625 0.320312c2.871762 0.807198 5.075938 3.453716 5.3125 6.40625 0.246184-3.338182-2.119196-6.508672-5.3125-7.40625-0.856-0.24-2.65625-0.320312-2.65625-0.320312zm-20 7v1c0.524274 2.052275 1.62505 3.58122 1.931641 4.716797 0.504524-1.171756-1.235185-2.990516-1.931641-5.716797zm20 0c-0.694024 2.718261-2.409246 4.534766-1.908203 5.707031 0.300661-1.13468 1.385639-2.660322 1.908203-4.707031v-1zm-18 9c-3.314 0-6 2.686-6 6h0.089844c0.477044-2.836666 2.937756-5 5.910156-5s5.433112 2.163334 5.910156 5h0.089844c0-3.314-2.686-6-6-6zm16 0c-3.314 0-6 2.686-6 6h0.089844c0.477044-2.836666 2.937756-5 5.910156-5s5.433112 2.163334 5.910156 5h0.089844c0-3.314-2.686-6-6-6z" style="fill:#ffffff;opacity:.2"/>
 <path d="m12.039 22.848c-0.0122 0.222-0.039 0.442-0.039 0.668 0 11.612 5.456 15.484 14.546 15.484h10.9062c9.092 0 14.548-3.872 14.548-15.484 0-0.226-0.026-0.446-0.04-0.668-0.414 10.564-5.778 14.152-14.506 14.152h-10.9062c-8.7298 0-14.0944-3.588-14.509-14.152z" style="opacity:.2"/>
 <path d="m26.546 38h10.909c9.09 0 14.544-3.87 14.544-15.484 0-7.7418-7.272-14.456-20-14.516-12.7272-0.0096-20 6.7742-20 14.516 0 11.614 5.4546 15.484 14.546 15.484z" style="fill:#a0a3a4"/>
 <circle cx="19" cy="24" r="5" style="opacity:.2"/>
 <circle cx="19" cy="23" r="5" style="fill:#74b8ff"/>
 <circle cx="19" cy="23" r="3" style="fill:#4d4d4d"/>
 <path d="M 26.812,32 A 6,2.6666 0 0 0 26,33.334 6,2.6666 0 0 0 32,36 6,2.6666 0 0 0 38,33.334 6,2.6666 0 0 0 37.188,32 6,2.6666 0 0 1 32,33.334 6,2.6666 0 0 1 26.812,32 Z" style="fill:#4d4d4d"/>
 <g transform="matrix(2.8572,0,0,1.90476,-13.7142,1.857172)">
  <path d="m13.9 11.1c0.013 4.2 1.3 4.2 2.1 4.2s2.0872 0 2.1-4.1996c2e-3 -3.3592-1.35-6.3-2.1-6.3-0.75063 0-2.1024 2.9408-2.1 6.3004z" style="fill:#4d4d4d"/>
  <path d="m14.6 13.9a0.7 0.7 0 0 0 -0.3459 0.09297c0.21683 0.63948 0.50964 0.95814 0.81758 1.1238a0.7 0.7 0 0 0 0.228 -0.517 0.7 0.7 0 0 0 -0.7 -0.7zm2.8 0a0.7 0.7 0 0 0 -0.7 0.7 0.7 0.7 0 0 0 0.22832 0.5168c0.30794-0.16569 0.60075-0.48435 0.81758-1.1238a0.7 0.7 0 0 0 -0.346 -0.093z" style="fill:#343434"/>
 </g>
 <circle cx="45" cy="24" r="5" style="opacity:.2"/>
 <circle cx="45" cy="23" r="5" style="fill:#74b8ff"/>
 <circle cx="45" cy="23" r="3" style="fill:#4d4d4d"/>
 <path d="M 32 8 C 19.2728 7.9904 12 14.773225 12 22.515625 C 12 22.746625 12.011931 22.961141 12.019531 23.181641 C 12.227028 15.580142 19.457363 8.9905392 32 9 C 44.543175 9.0591287 51.772718 15.582282 51.980469 23.181641 C 51.988219 22.961141 52 22.746625 52 22.515625 C 52 14.773225 44.728 8.06 32 8 z" style="fill:#ffffff;opacity:.2"/>
</svg>

<svg xmlns="http://www.w3.org/2000/svg" width="64" height="64" version="1">
 <rect style="fill:#6f6f6f" width="20" height="24" x="22" y="34" rx="2.858" ry="2.666"/>
 <path style="opacity:0.2" d="M 27.95,15.996 A 12,12 0 0 1 16,27 12,12 0 0 1 4.0508,16.004 12,12 0 0 0 4,17 12,12 0 0 0 16,29 12,12 0 0 0 28,17 12,12 0 0 0 27.95,15.996 Z m 32,0 A 12,12 0 0 1 48,27 12,12 0 0 1 36.05,16.004 12,12 0 0 0 36,17 12,12 0 0 0 48,29 12,12 0 0 0 60,17 12,12 0 0 0 59.95,15.996 Z m -45.848,29.16 c -0.148772,0.87186 -0.133198,1.77956 0.09766,2.6836 0.95062,3.7226 4.5698,5.9154 8.1172,4.918 1.92384,-0.5409 1.90792,-1.42402 1.375,-2.6796 -0.266,0.26622 -0.70638,0.4917 -1.375,0.67968 -3.5474,0.99738 -7.1666,-1.1953 -8.1172,-4.918 -0.05827,-0.2282 -0.06532,-0.45548 -0.09766,-0.6836 z m 35.828,0 c -0.03234,0.2281 -0.03938,0.4554 -0.09766,0.6836 -0.95062,3.7226 -4.5736,5.9154 -8.121,4.918 -0.68094,-0.19146 -1.12068,-0.42264 -1.38672,-0.69532 -0.5314,1.26308 -0.54398,2.1524 1.38672,2.6954 3.5474,0.99738 7.1704,-1.1953 8.121,-4.918 0.23086,-0.90404 0.24642,-1.81174 0.09766,-2.6836 z M 18.368,59 c -0.2232,0.628 -0.3672,1.296 -0.3672,2 l 12,0 c 0,-0.70468 -0.14402,-1.37186 -0.36718,-2 l -11.2656,0 z m 16,0 C 34.144,59.628 34,60.296 34,61 l 12,0 c 0,-0.70468 -0.14402,-1.37186 -0.36718,-2 l -11.2656,0 z"/>
 <circle style="fill:#6f6f6f" cx="16" cy="16" r="12"/>
 <circle style="fill:#6f6f6f" cx="48" cy="16" r="12"/>
 <path style="fill:#a0a3a4" d="m 22,45 0,-7 c 0,0 -1.76872,0.0793 -2.6256,0.32022 -3.5474,0.99738 -6.1262,4.7972 -5.1756,8.52 0.95062,3.7226 4.5718,5.9166 8.1192,4.9192 3.548,-0.998 0.632,-3.038 -0.318,-6.76 z"/>
 <path style="fill:#a0a3a4" d="m 42,45 0,-7 c 0,0 1.79862,0.0793 2.6556,0.32022 3.5474,0.99738 6.1262,4.7972 5.1756,8.52 -0.95062,3.7226 -4.5718,5.9166 -8.1192,4.9192 -3.548,-0.998 -0.662,-3.038 0.288,-6.76 z"/>
 <path style="fill:#a0a3a4" d="m 46,60 -12,0 c 0,-3.3138 2.6862,-6 6,-6 3.3138,0 6,2.6862 6,6 z"/>
 <path style="fill:#a0a3a4" d="m 30,60 -12,0 c 0,-3.3138 2.6862,-6 6,-6 3.3138,0 6,2.6862 6,6 z"/>
 <path style="opacity:0.2;fill:#ffffff" d="M 16 4 A 12 12 0 0 0 4 16 A 12 12 0 0 0 4.0195312 16.40625 A 12 12 0 0 1 16 5 A 12 12 0 0 1 27.974609 16.498047 A 12 12 0 0 0 28 16 A 12 12 0 0 0 16 4 z M 48 4 A 12 12 0 0 0 36 16 A 12 12 0 0 0 36.019531 16.40625 A 12 12 0 0 1 48 5 A 12 12 0 0 1 59.974609 16.498047 A 12 12 0 0 0 60 16 A 12 12 0 0 0 48 4 z M 22 38 C 22 38 20.232 38.080312 19.375 38.320312 C 16.181696 39.21789 13.815303 42.38838 14.0625 45.726562 C 14.298416 42.774028 16.503238 40.12751 19.375 39.320312 C 20.232 39.080312 22 39 22 39 L 22 38 z M 42 38 L 42 39 C 42 39 43.80025 39.080312 44.65625 39.320312 C 47.528012 40.12751 49.732188 42.774028 49.96875 45.726562 C 50.214934 42.38838 47.849554 39.21789 44.65625 38.320312 C 43.80025 38.080312 42 38 42 38 z M 22 45 L 22 46 C 22.524274 48.052275 23.62505 49.58122 23.931641 50.716797 C 24.436165 49.545041 22.696456 47.726281 22 45 z M 42 45 C 41.305976 47.718261 39.590754 49.534766 40.091797 50.707031 C 40.392458 49.572351 41.477436 48.046709 42 46 L 42 45 z M 24 54 C 20.686 54 18 56.686 18 60 L 18.089844 60 C 18.566888 57.163334 21.0276 55 24 55 C 26.9724 55 29.433112 57.163334 29.910156 60 L 30 60 C 30 56.686 27.314 54 24 54 z M 40 54 C 36.686 54 34 56.686 34 60 L 34.089844 60 C 34.566888 57.163334 37.0276 55 40 55 C 42.9724 55 45.433112 57.163334 45.910156 60 L 46 60 C 46 56.686 43.314 54 40 54 z"/>
 <path style="opacity:0.2" d="M 12.039,22.848 C 12.0268,23.07 12,23.29 12,23.516 12,35.128 17.456,39 26.546,39 l 10.9062,0 c 9.092,0 14.548,-3.872 14.548,-15.484 0,-0.226 -0.026,-0.446 -0.04,-0.668 C 51.5462,33.412 46.1822,37 37.4542,37 L 26.548,37 C 17.8182,37 12.4536,33.412 12.039,22.848 Z"/>
 <path style="fill:#a0a3a4" d="m 26.546,38 10.909,0 c 9.09,0 14.544,-3.87 14.544,-15.484 0,-7.7418 -7.272,-14.456 -20,-14.516 -12.7272,-0.0096 -20,6.7742 -20,14.516 C 11.999,34.13 17.4536,38 26.545,38 Z"/>
 <circle style="opacity:0.2" cx="19" cy="24" r="5"/>
 <circle style="fill:#74b8ff" cx="19" cy="23" r="5"/>
 <circle style="fill:#4d4d4d" cx="19" cy="23" r="3"/>
 <path style="fill:#4d4d4d" d="M 26.812,32 A 6,2.6666 0 0 0 26,33.334 6,2.6666 0 0 0 32,36 6,2.6666 0 0 0 38,33.334 6,2.6666 0 0 0 37.188,32 6,2.6666 0 0 1 32,33.334 6,2.6666 0 0 1 26.812,32 Z"/>
 <g transform="matrix(2.8572,0,0,1.90476,-13.7142,1.857172)">
  <path style="fill:#4d4d4d" d="m 13.9,11.1 c 0.013,4.2 1.3,4.2 2.1,4.2 0.8,0 2.0872,0 2.1,-4.1996 0.002,-3.3592 -1.35,-6.3 -2.1,-6.3 -0.75063,0 -2.1024,2.9408 -2.1,6.3004 z"/>
  <path style="fill:#343434" d="m 14.6,13.9 a 0.7,0.7 0 0 0 -0.3459,0.09297 c 0.21683,0.63948 0.50964,0.95814 0.81758,1.1238 a 0.7,0.7 0 0 0 0.228,-0.517 0.7,0.7 0 0 0 -0.7,-0.7 z m 2.8,0 a 0.7,0.7 0 0 0 -0.7,0.7 0.7,0.7 0 0 0 0.22832,0.5168 c 0.30794,-0.16569 0.60075,-0.48435 0.81758,-1.1238 A 0.7,0.7 0 0 0 17.3999,13.9 Z"/>
 </g>
 <circle style="opacity:0.2" cx="45" cy="24" r="5"/>
 <circle style="fill:#74b8ff" cx="45" cy="23" r="5"/>
 <circle style="fill:#4d4d4d" cx="45" cy="23" r="3"/>
 <path style="opacity:0.2;fill:#ffffff" d="M 32 8 C 19.2728 7.9904 12 14.773225 12 22.515625 C 12 22.746625 12.011931 22.961141 12.019531 23.181641 C 12.227028 15.580142 19.457363 8.9905392 32 9 C 44.543175 9.0591287 51.772718 15.582282 51.980469 23.181641 C 51.988219 22.961141 52 22.746625 52 22.515625 C 52 14.773225 44.728 8.06 32 8 z"/>
</svg>
